X: 160
T: Windfor Tarras
T: Longways &c.
%R: reel
B: Daniel Wright "Wright's Compleat Collection of Celebrated Country Dances" 1740 p.80
S: http://library.efdss.org/cgi-bin/dancebooks.cgi
Z: 2014 John Chambers <jc:trillian.mit.edu>
N: The "Repeat" presumably means from the ":S:" symbol.
M: C|
L: 1/8
K: Dm
% - - - - - - - - - - - - - - - - - - - - - - - - -
|:\
d2Af e3A | dfed ^c3=B |\
Ad Gd Fd Ed | ^cde^c d4 :|\
a2 f/g/a g3g | af f/g/a g3f |
eg dg cg Bg | Af ge f4 |\
af fg b3a | gfed ^c3"^:S:"=B |\
Ad Gd Fd Ed | Dd e^c d4 |]
% - - - - - - - - - - - - - - - - - - - - - - - - -
%%center The first strain twice, and the last but once and Repeat.
%%begintext align
%% All four meet and turn single, then hands quite
%% round .| lead to the Wall and back again, then back
%% to back with your partners :| the 1st Man change
%% places with the 2d Wo. and the 2d Man with the 1st Wo.
%% the two We. lead thro' the two Men. the 2d Cu. being in
%% the 1st Cu. place improper, each Cu. take hands &
%% meet, then fall back again, the 2d Cu. turn single
%% off into their own places, the 1st Cu. turn single
%% at the same time up into their own place, the 1st
%% Man draw off his partner at the repeat .|
%%endtext
% - - - - - - - - - - - - - - - - - - - - - - - - -
%%sep 2 4 300
